X:574
T:Miss Murray of Auchtyre
R:Strathspey
C:John Bowie
B:The Athole Collection
M:C
L:1/8
K:F
c|A/B/c f>c d>cf>c|A/B/c f>c d>c d<f|A/B/c f>c d/e/f/g/ a>g|f>dc>A F2F:|
A/B/|c<Fd<F c<F d>f|c<F cB/A/ G2 GA/B/|c<f c>A f<ag<a|f>d c<A F2 FA/B/|
c<Fd<F c<F f>d|c<F cB/A/ G2 GA/B/|c<F c>A f<ag<a|f>dc>A F2F||

